Carto/POI/SVG/facilities-office-prefectural-jpn_solid_24px.svg

<svg xmlns="http://www.w3.org/2000/svg" width="24" height="24" viewBox="0 0 24 24"><rect width="24" height="24" style="fill:none"/><path d="M12,6c4.41,0,8,2.69,8,6s-3.59,6-8,6-8-2.69-8-6,3.59-6,8-6m0-2C6.48,4,2,7.58,2,12s4.48,8,10,8,10-3.58,10-8S17.52,4,12,4Zm0,6c2.44,0,4,1.18,4,2s-1.56,2-4,2-4-1.18-4-2,1.56-2,4-2m0-2C8.69,8,6,9.79,6,12s2.69,4,6,4,6-1.79,6-4-2.69-4-6-4Z"/></svg>

<svg width="24" height="24" viewBox="0 0 24 24" fill="none" xmlns="http://www.w3.org/2000/svg">
<path d="M12 6C16.41 6 20 8.69 20 12C20 15.31 16.41 18 12 18C7.59 18 4 15.31 4 12C4 8.69 7.59 6 12 6ZM12 4C6.48 4 2 7.58 2 12C2 16.42 6.48 20 12 20C17.52 20 22 16.42 22 12C22 7.58 17.52 4 12 4ZM12 10C14.44 10 16 11.18 16 12C16 12.82 14.44 14 12 14C9.56 14 8 12.82 8 12C8 11.18 9.56 10 12 10ZM12 8C8.69 8 6 9.79 6 12C6 14.21 8.69 16 12 16C15.31 16 18 14.21 18 12C18 9.79 15.31 8 12 8Z" fill="#0F1621"/>
</svg>
